pro/src/icons/stroke-wrong.svg

<svg width="48" height="48" viewBox="0 0 48 48" fill="none" xmlns="http://www.w3.org/2000/svg">
<path id="icon" fill-rule="evenodd" clip-rule="evenodd" d="M24 43.0909C13.4545 43.0909 4.90909 34.5455 4.90909 24C4.90909 20.7523 5.71845 17.6905 7.15309 15.021C7.40265 14.5566 7.22851 13.9778 6.76414 13.7283C6.29977 13.4787 5.72101 13.6529 5.47145 14.1172C3.88973 17.0604 3 20.4322 3 24C3 35.5999 12.4001 45 24 45C35.5999 45 45 35.5999 45 24C45 12.4001 35.5999 3 24 3C20.3809 3 16.9697 3.92016 13.9891 5.54046C13.5259 5.79225 13.3546 6.37183 13.6064 6.835C13.8582 7.29816 14.4377 7.46952 14.9009 7.21773C17.6094 5.74531 20.7082 4.9091 24 4.90909C34.5455 4.90909 43.0909 13.4545 43.0909 24C43.0909 34.5455 34.5455 43.0909 24 43.0909ZM15.2936 15.2922C15.6845 14.9021 16.3176 14.9027 16.7078 15.2936L23.9847 22.5847L31.2538 15.3322C31.6448 14.9421 32.278 14.9428 32.668 15.3338C33.0581 15.7248 33.0574 16.3579 32.6664 16.748L25.4023 23.9955L32.7049 31.2507C33.0966 31.64 33.0987 32.2731 32.7095 32.6649C32.3202 33.0567 31.687 33.0588 31.2952 32.6695L23.9939 25.4155L16.7539 32.7047C16.3647 33.0966 15.7315 33.0987 15.3397 32.7095C14.9478 32.3203 14.9457 31.6871 15.3349 31.2953L22.5763 24.0046L15.2922 16.7064C14.9021 16.3155 14.9027 15.6824 15.2936 15.2922Z" fill="currentColor"/>
</svg>

<svg xmlns="http://www.w3.org/2000/svg" width="48" height="48" fill="none"><path id="icon" fill="currentColor" fill-rule="evenodd" d="M24 43.09C13.455 43.09 4.91 34.546 4.91 24c0-3.248.808-6.31 2.243-8.979a.955.955 0 0 0-1.682-.904A20.8 20.8 0 0 0 3 24c0 11.6 9.4 21 21 21s21-9.4 21-21S35.6 3 24 3c-3.62 0-7.03.92-10.01 2.54a.954.954 0 1 0 .91 1.678A19 19 0 0 1 24 4.909c10.545 0 19.09 8.546 19.09 19.091S34.546 43.09 24 43.09m-8.706-27.798a1 1 0 0 1 1.414.002l7.277 7.29 7.269-7.252a1 1 0 1 1 1.412 1.416l-7.264 7.247 7.303 7.256a1 1 0 0 1-1.41 1.418l-7.301-7.253-7.24 7.289a1 1 0 1 1-1.42-1.41l7.242-7.29-7.284-7.299a1 1 0 0 1 .002-1.414" clip-rule="evenodd"/></svg>
